X: 10311
M: 2/4
L: 1/16
K: D
uA2 |\
c2B2 B2(cd) | f2e2 A2A2 |\
c2B2 f2e2 | (cd)Bc A2z2 ||\
vA4 d>ef>d | A4 (d>e)f>d |\
a>gf>g ^d>ef>e | a>gf>g ^d>ef>e |
a>gf>g ^d>ef>e | a>gf>g ^d>e(f>e) ||\
c2a2 a2(ga) | fgef decd |\
u~d4 |\
b2a2g2f2 | e2^df e2^c2 |\
d2^ce d2=c2 | (.B3.B) (dB)gd |\
b2a2g2f2 | e2^df e2^c2 |\
d2^ce d2(fa) | g2b2g2 "_D.C."|]
uA2 "^Coda"|\
c2a2 a2(ga) | fgef decd |\


